X: 38973
T: Swallow's Nest, The
R: reel
M: 4/4
K: Gmajor
~G3A GEDE|G2BG AedB|A~E3 A2 B/c/d|egfa gedB|
~G3A GEDE|GABd efge|d~G3 EGDG|1 FGAF GcBA:|2 FGAF G2 Bc||
dgbg edBA|GEDE GABd|eaab aged|~B3d e2 ge|
d~g3 agbg|aged eage|d~G3 EGDG|1 FGAF GABc:|2 FGAF GcBA||

